X: 4225
M: 6/8
L: 1/8
K: A
|:\
|:\
aec Ace | aga e2f | =gdB =GBd | =gfg e2^g |\
aec Ace | aga efd | cee dBe | cAA A3 :|


